sorrow.svg

<svg width="96" height="128" viewBox="0 0 6 8" xmlns="http://www.w3.org/2000/svg"><path d="m1 0 1 1-2 2 2 2-1 1-1-1 2-2-2-2m5-1 1 1-2 2 2 2-1 1-1-1 2-2-2-2m-1 5 1 1-1 1-1-1"/></svg>

<svg viewBox="0 0 6 8" xmlns="http://www.w3.org/2000/svg"><path d="M1 0L2 1 0 3 2 5 1 6 0 5 2 3 0 1M5 0L6 1 4 3 6 5 5 6 4 5 6 3 4 1M3 6L4 7 3 8 2 7"/></svg>
